; G-Code generated by Simplify3D(R) Version 3.0.2
; mars 20, 2016 at 2:11:23 PM
; Settings Summary
;   processName,Process1
;   applyToModels,glissiere_v8_2020_test_2
;   profileName,Verbatim Pla - Dyzend v2 060 (modified)
;   profileVersion,2015-11-28 13:31:29
;   baseProfile,Prusa Mendel (modified)
;   printMaterial,PLA
;   printQuality,Medium
;   printExtruders,
;   extruderName,Primary Extruder
;   extruderToolheadNumber,0
;   extruderDiameter,0.6
;   extruderAutoWidth,1
;   extruderWidth,0.72
;   extrusionMultiplier,0.96
;   extruderUseRetract,1
;   extruderRetractionDistance,4.8
;   extruderExtraRestartDistance,-0.2
;   extruderRetractionZLift,0
;   extruderRetractionSpeed,2400
;   extruderUseCoasting,1
;   extruderCoastingDistance,0.2
;   extruderUseWipe,0
;   extruderWipeDistance,5
;   primaryExtruder,0
;   layerHeight,0.32
;   topSolidLayers,3
;   bottomSolidLayers,3
;   perimeterOutlines,2
;   printPerimetersInsideOut,1
;   startPointOption,2
;   startPointOriginX,0
;   startPointOriginY,0
;   startPointOriginZ,300
;   sequentialIslands,0
;   spiralVaseMode,0
;   firstLayerHeightPercentage,100
;   firstLayerWidthPercentage,90
;   firstLayerUnderspeed,0.85
;   useRaft,0
;   raftExtruder,0
;   raftLayers,2
;   raftOffset,3
;   raftSeparationDistance,0.2
;   raftInfill,60
;   disableRaftBaseLayers,0
;   useSkirt,1
;   skirtExtruder,0
;   skirtLayers,1
;   skirtOutlines,3
;   skirtOffset,4
;   usePrimePillar,0
;   primePillarExtruder,999
;   primePillarWidth,12
;   primePillarLocation,7
;   primePillarSpeedMultiplier,1
;   useOozeShield,0
;   oozeShieldExtruder,999
;   oozeShieldOffset,2
;   oozeShieldOutlines,1
;   oozeShieldSidewallShape,1
;   oozeShieldSidewallAngle,30
;   oozeShieldSpeedMultiplier,1
;   infillExtruder,0
;   internalInfillPattern,Rectilinear
;   externalInfillPattern,Rectilinear
;   infillPercentage,20
;   outlineOverlapPercentage,40
;   infillExtrusionWidthPercentage,100
;   minInfillLength,2
;   infillLayerInterval,1
;   infillAngles,45,-45
;   overlapInfillAngles,0
;   generateSupport,1
;   supportExtruder,0
;   supportInfillPercentage,20
;   supportExtraInflation,0
;   denseSupportLayers,1
;   denseSupportInfillPercentage,70
;   supportLayerInterval,1
;   supportHorizontalPartOffset,0.2
;   supportUpperSeparationLayers,1
;   supportLowerSeparationLayers,1
;   supportType,1
;   supportGridSpacing,3
;   maxOverhangAngle,45
;   supportAngles,0
;   temperatureName,Primary Extruder,Heated Bed
;   temperatureNumber,0,1
;   temperatureSetpointCount,2,1
;   temperatureSetpointLayers,1,4,1
;   temperatureSetpointTemperatures,220,215,40
;   temperatureStabilizeAtStartup,1,1
;   temperatureHeatedBed,0,1
;   temperatureRelayBetweenLayers,0,0
;   temperatureRelayBetweenLoops,0,0
;   fanLayers,1,4
;   fanSpeeds,0,75
;   blipFanToFullPower,0
;   adjustSpeedForCooling,1
;   minSpeedLayerTime,2
;   minCoolingSpeedSlowdown,40
;   increaseFanForCooling,1
;   minFanLayerTime,15
;   maxCoolingFanSpeed,100
;   increaseFanForBridging,1
;   bridgingFanSpeed,100
;   use5D,1
;   relativeEdistances,0
;   allowEaxisZeroing,1
;   independentExtruderAxes,0
;   includeM10123,0
;   stickySupport,1
;   applyToolheadOffsets,0
;   gcodeXoffset,0
;   gcodeYoffset,0
;   gcodeZoffset,0
;   overrideMachineDefinition,1
;   machineTypeOverride,0
;   strokeXoverride,200
;   strokeYoverride,200
;   strokeZoverride,180
;   originOffsetXoverride,0
;   originOffsetYoverride,0
;   originOffsetZoverride,0
;   homeXdirOverride,-1
;   homeYdirOverride,-1
;   homeZdirOverride,-1
;   flipXoverride,1
;   flipYoverride,-1
;   flipZoverride,1
;   toolheadOffsets,0,0|0,0|0,0|0,0|0,0|0,0
;   overrideFirmwareConfiguration,0
;   firmwareTypeOverride,RepRap (Marlin/Repetier/Sprinter)
;   GPXconfigOverride,r2
;   baudRateOverride,115200
;   overridePrinterModels,1
;   printerModelsOverride
;   startingGcode,M107       ;start with the fan off,G28 X0 Y0  ;move X/Y to min endstops,G28 Z0     ;move Z to min endstops,G92 E0                  ;zero the extruded length,G1 F{travel_speed},G1 Z0.08 ;move to 0.08,G92 Z0 ;set current height,M92 Z394.8,M500,,
;   layerChangeGcode,
;   retractionGcode,
;   toolChangeGcode,
;   endingGcode,; -- END GCODE --,M104 S0                     ;extruder heater off,M140 S0                     ;heated bed heater off (if you have it),G90,G1 E-5 F300                            ;retract the filament a bit before lifting the nozzle to release some of the pressure,G91                                    ;relative positioning,G1 Z10 F{travel_speed} ;move Z up a bit and retract filament even more,G90,G28 X0 Y0                              ;move X/Y to min endstops so the head is out of the way,;M300,M107       ;start with the fan off,M84 ; disable motors
;   createX3G,0
;   celebration,0
;   celebrationSong,Random Song
;   createMB5G,0
;   postProcessing,{REPLACE "M117 Layer" "M117 Layer"} ,{REPLACE " Z=" " Z="}
;   defaultSpeed,3300
;   outlineUnderspeed,0.65
;   solidInfillUnderspeed,0.8
;   supportUnderspeed,0.8
;   rapidXYspeed,4800
;   rapidZspeed,1200
;   minBridgingArea,50
;   bridgingExtraInflation,0
;   bridgingExtrusionMultiplier,1
;   bridgingSpeedMultiplier,1
;   filamentDiameter,1.75
;   filamentPricePerKg,46
;   filamentDensity,1.25
;   useMinPrintHeight,0
;   minPrintHeight,0
;   useMaxPrintHeight,0
;   maxPrintHeight,32
;   useDiaphragm,0
;   diaphragmLayerInterval,59
;   robustSlicing,1
;   mergeAllIntoSolid,0
;   onlyRetractWhenCrossingOutline,1
;   retractBetweenLayers,0
;   useRetractionMinTravel,0
;   retractionMinTravel,3
;   retractWhileWiping,1
;   onlyWipeOutlines,1
;   avoidCrossingOutline,0
;   maxMovementDetourFactor,3
;   toolChangeRetractionDistance,12
;   toolChangeExtraRestartDistance,-0.5
;   toolChangeRetractionSpeed,600
;   allowThinWallGapFill,1
;   thinWallAllowedOverlapPercentage,30
;   horizontalSizeCompensation,0
G90
M82
M106 S0
M140 S40
M190 S40
M104 S220 T0
M109 S220 T0
M107       ;start with the fan off
G28 X0 Y0  ;move X/Y to min endstops
G28 Z0     ;move Z to min endstops
G92 E0                  ;zero the extruded length
G1 F{travel_speed}
G1 Z0.08 ;move to 0.08
G92 Z0 ;set current height
M92 Z394.8
M500
G92 E0
G1 E-4.8000 F2400
G1 Z0.320 F1200
M117 Layer 1, Z=0.32
T0
; tool H0.320 W0.648
; skirt
G1 X80.023 Y67.324 F4800
G1 E-0.2000 F720
G92 E0
G1 X82.873 Y64.474 E0.3335 F2805
G1 X83.534 Y64.200 E0.3928
G1 X126.515 Y64.200 E3.9499
G1 X127.176 Y64.474 E4.0092
G1 X130.026 Y67.324 E4.3427
G1 X130.300 Y67.985 E4.4020
G1 X130.300 Y105.993 E7.5476
G1 X130.231 Y106.341 E7.5769
G1 X129.486 Y108.138 E7.7380
G1 X129.289 Y108.433 E7.7673
G1 X102.933 Y134.789 E10.8521
G1 X102.638 Y134.986 E10.8814
G1 X100.841 Y135.731 E11.0425
G1 X100.493 Y135.800 E11.0718
G1 X83.534 Y135.800 E12.4754
G1 X82.873 Y135.526 E12.5346
G1 X80.023 Y132.676 E12.8682
G1 X79.749 Y132.015 E12.9274
G1 X79.749 Y67.985 E18.2266
G1 X79.947 Y67.508 E18.2694
G1 X80.023 Y67.324 F2805
G1 X80.633 Y67.731 F4800
G92 E0
G1 X83.280 Y65.084 E0.3098 F2805
G1 X83.677 Y64.920 E0.3454
G1 X126.372 Y64.920 E3.8788
G1 X126.769 Y65.084 E3.9144
G1 X129.416 Y67.731 E4.2242
G1 X129.580 Y68.128 E4.2598
G1 X129.580 Y105.922 E7.3876
G1 X129.538 Y106.131 E7.4052
G1 X128.848 Y107.797 E7.5545
G1 X128.730 Y107.974 E7.5722
G1 X102.474 Y134.230 E10.6452
G1 X102.297 Y134.348 E10.6628
G1 X100.631 Y135.038 E10.8121
G1 X100.422 Y135.080 E10.8297
G1 X83.677 Y135.080 E12.2155
G1 X83.280 Y134.916 E12.2511
G1 X80.633 Y132.269 E12.5609
G1 X80.469 Y131.872 E12.5965
G1 X80.469 Y68.128 E17.8720
G1 X80.557 Y67.916 E17.8910
G1 X80.633 Y67.731 F2805
G1 X81.244 Y68.139 F4800
G92 E0
G1 X83.688 Y65.695 E0.2861 F2805
G1 X83.821 Y65.640 E0.2980
G1 X126.228 Y65.640 E3.8077
G1 X126.361 Y65.695 E3.8196
G1 X128.805 Y68.139 E4.1057
G1 X128.860 Y68.272 E4.1175
G1 X128.860 Y105.851 E7.2277
G1 X128.846 Y105.921 E7.2335
G1 X128.210 Y107.456 E7.3711
G1 X128.171 Y107.515 E7.3770
G1 X102.015 Y133.671 E10.4383
G1 X101.956 Y133.710 E10.4441
G1 X100.421 Y134.346 E10.5817
G1 X100.351 Y134.360 E10.5876
G1 X83.821 Y134.360 E11.9557
G1 X83.688 Y134.305 E11.9675
G1 X81.244 Y131.861 E12.2536
G1 X81.189 Y131.728 E12.2655
G1 X81.189 Y68.328 E17.5126
G1 X81.189 Y68.272 F2805
G1 X81.244 Y68.139 F2805
G92 E0
G1 E-4.8000 F2400
; inner perimeter
G1 X86.521 Y70.972 F4800
G1 E-0.2000 F2400
G92 E0
G1 X123.528 Y70.972 E3.0628 F2314
G1 X123.528 Y104.617 E5.8473
G1 X99.117 Y129.028 E8.7044
G1 X86.521 Y129.028 E9.7469
G1 X86.521 Y71.172 E14.5352
G1 X86.521 Y70.972 F2314
; outer perimeter
G1 X85.873 Y70.324 F4800
G92 E0
G1 X124.176 Y70.324 E3.1700 F1823
G1 X124.176 Y104.886 E6.0304
G1 X99.386 Y129.676 E8.9319
G1 X85.873 Y129.676 E10.0503
G1 X85.873 Y70.524 E14.9458
G1 X85.873 Y70.324 F1823
; inner perimeter
G1 X98.528 Y79.028 F4800
G92 E0
G1 X98.528 Y100.972 E1.8161 F2314
G1 X120.472 Y100.972 E3.6323
G1 X120.472 Y79.028 E5.4484
G1 X98.728 Y79.028 E7.2480
G1 X98.528 Y79.028 F2314
; outer perimeter
G1 X99.176 Y79.676 F4800
G92 E0
G1 X99.176 Y100.324 E1.7089 F1823
G1 X119.824 Y100.324 E3.4177
G1 X119.824 Y79.676 E5.1266
G1 X99.376 Y79.676 E6.8189
G1 X99.176 Y79.676 F1823
; solid layer
G1 X98.451 Y78.639 F4800
G92 E0
G1 X105.729 Y71.361 E0.8519 F2244
G1 X106.645 Y71.361 E0.9277
G1 X99.367 Y78.639 E1.7796
G1 X100.283 Y78.639 E1.8555
G1 X107.562 Y71.361 E2.7073
G1 X108.478 Y71.361 E2.7832
G1 X101.200 Y78.639 E3.6351
G1 X102.116 Y78.639 E3.7109
G1 X109.395 Y71.361 E4.5628
G1 X110.311 Y71.361 E4.6386
G1 X103.033 Y78.639 E5.4905
G1 X103.949 Y78.639 E5.5664
G1 X111.227 Y71.361 E6.4183
G1 X112.144 Y71.361 E6.4941
G1 X104.865 Y78.639 E7.3460
G1 X105.782 Y78.639 E7.4218
G1 X113.060 Y71.361 E8.2737
G1 X113.977 Y71.361 E8.3496
G1 X106.698 Y78.639 E9.2014
G1 X107.615 Y78.639 E9.2773
G1 X114.893 Y71.361 E10.1292
G1 X115.809 Y71.361 E10.2050
G1 X108.531 Y78.639 E11.0569
G1 X109.447 Y78.639 E11.1328
G1 X116.726 Y71.361 E11.9846
G1 X117.642 Y71.361 E12.0605
G1 X110.364 Y78.639 E12.9124
G1 X111.280 Y78.639 E12.9882
G1 X118.559 Y71.361 E13.8401
G1 X119.475 Y71.361 E13.9159
G1 X112.197 Y78.639 E14.7678
G1 X113.113 Y78.639 E14.8437
G1 X120.392 Y71.361 E15.6956
G1 X121.308 Y71.361 E15.7714
G1 X114.030 Y78.639 E16.6233
G1 X114.946 Y78.639 E16.6991
G1 X122.224 Y71.361 E17.5510
G1 X123.139 Y71.361 E17.6267
G1 X123.139 Y71.362 E17.6269
G1 X115.862 Y78.639 E18.4786
G1 X116.779 Y78.639 E18.5544
G1 X123.139 Y72.279 E19.2988
G1 X123.139 Y73.195 E19.3747
G1 X117.695 Y78.639 E20.0119
G1 X118.612 Y78.639 E20.0877
G1 X123.139 Y74.112 E20.6176
G1 X123.139 Y75.028 E20.6935
G1 X119.528 Y78.639 E21.1161
G1 X120.444 Y78.639 E21.1920
G1 X123.139 Y75.944 E21.5074
G1 X123.139 Y76.861 E21.5832
G1 X120.861 Y79.139 E21.8499
G1 X120.861 Y80.056 E21.9258
G1 X123.139 Y77.777 E22.1924
G1 X123.139 Y78.694 E22.2683
G1 X120.861 Y80.972 E22.5349
G1 X120.861 Y81.888 E22.6108
G1 X123.139 Y79.610 E22.8775
G1 X123.139 Y80.526 E22.9533
G1 X120.861 Y82.805 E23.2200
G1 X120.861 Y83.721 E23.2958
G1 X123.139 Y81.443 E23.5625
G1 X123.139 Y82.359 E23.6383
G1 X120.861 Y84.638 E23.9050
G1 X120.861 Y85.554 E23.9808
G1 X123.139 Y83.276 E24.2475
G1 X123.139 Y84.192 E24.3234
G1 X120.861 Y86.471 E24.5900
G1 X120.861 Y87.387 E24.6659
G1 X123.139 Y85.109 E24.9325
G1 X123.139 Y86.025 E25.0084
G1 X120.861 Y88.303 E25.2751
G1 X120.861 Y89.220 E25.3509
G1 X123.139 Y86.941 E25.6176
G1 X123.139 Y87.858 E25.6934
G1 X120.861 Y90.136 E25.9601
G1 X120.861 Y91.053 E26.0359
G1 X123.139 Y88.774 E26.3026
G1 X123.139 Y89.691 E26.3784
G1 X120.861 Y91.969 E26.6451
G1 X120.861 Y92.885 E26.7210
G1 X123.139 Y90.607 E26.9876
G1 X123.139 Y91.523 E27.0635
G1 X120.861 Y93.802 E27.3301
G1 X120.861 Y94.718 E27.4060
G1 X123.139 Y92.440 E27.6727
G1 X123.139 Y93.356 E27.7485
G1 X120.861 Y95.635 E28.0152
G1 X120.861 Y96.551 E28.0910
G1 X123.139 Y94.273 E28.3577
G1 X123.139 Y95.189 E28.4335
G1 X120.861 Y97.467 E28.7002
G1 X120.861 Y98.384 E28.7760
G1 X123.139 Y96.105 E29.0427
G1 X123.139 Y97.022 E29.1186
G1 X120.861 Y99.300 E29.3852
G1 X120.861 Y100.217 E29.4611
G1 X123.139 Y97.938 E29.7277
G1 X123.139 Y98.855 E29.8036
G1 X121.002 Y100.992 E30.0537
G1 X120.861 Y101.133 F2244
G1 X98.853 Y128.639 F4800
G92 E0
G1 X123.139 Y104.353 E2.8425 F2244
G1 X123.139 Y103.437 E2.9184
G1 X97.937 Y128.639 E5.8681
G1 X97.020 Y128.639 E5.9440
G1 X123.139 Y102.520 E9.0010
G1 X123.139 Y101.604 E9.0768
G1 X96.104 Y128.639 E12.2411
G1 X95.188 Y128.639 E12.3170
G1 X123.139 Y100.688 E15.5885
G1 X123.139 Y99.771 E15.6644
G1 X94.271 Y128.639 E19.0432
G1 X93.355 Y128.639 E19.1190
G1 X120.633 Y101.361 E22.3118
G1 X119.717 Y101.361 E22.3876
G1 X92.438 Y128.639 E25.5804
G1 X91.522 Y128.639 E25.6562
G1 X118.800 Y101.361 E28.8489
G1 X117.884 Y101.361 E28.9248
G1 X90.605 Y128.639 E32.1175
G1 X89.689 Y128.639 E32.1934
G1 X116.967 Y101.361 E35.3861
G1 X116.051 Y101.361 E35.4620
G1 X88.773 Y128.639 E38.6547
G1 X87.856 Y128.639 E38.7306
G1 X115.135 Y101.361 E41.9233
G1 X114.218 Y101.361 E41.9991
G1 X86.940 Y128.639 E45.1919
G1 X86.910 Y128.639 E45.1944
G1 X86.910 Y127.753 E45.2677
G1 X113.302 Y101.361 E48.3567
G1 X112.385 Y101.361 E48.4326
G1 X86.910 Y126.836 E51.4143
G1 X86.910 Y125.920 E51.4901
G1 X111.469 Y101.361 E54.3646
G1 X110.553 Y101.361 E54.4405
G1 X86.910 Y125.004 E57.2077
G1 X86.910 Y124.087 E57.2835
G1 X109.636 Y101.361 E59.9435
G1 X108.720 Y101.361 E60.0193
G1 X86.910 Y123.171 E62.5720
G1 X86.910 Y122.254 E62.6479
G1 X107.803 Y101.361 E65.0933
G1 X106.887 Y101.361 E65.1692
G1 X86.910 Y121.338 E67.5073
G1 X86.910 Y120.422 E67.5832
G1 X105.971 Y101.361 E69.8141
G1 X105.054 Y101.361 E69.8899
G1 X86.910 Y119.505 E72.0136
G1 X86.910 Y118.589 E72.0895
G1 X104.138 Y101.361 E74.1059
G1 X103.221 Y101.361 E74.1817
G1 X86.910 Y117.672 E76.0908
G1 X86.910 Y116.756 E76.1667
G1 X102.305 Y101.361 E77.9686
G1 X101.388 Y101.361 E78.0444
G1 X86.910 Y115.839 E79.7390
G1 X86.910 Y114.923 E79.8149
G1 X100.472 Y101.361 E81.4022
G1 X99.556 Y101.361 E81.4781
G1 X86.910 Y114.007 E82.9582
G1 X86.910 Y113.090 E83.0340
G1 X98.639 Y101.361 E84.4069
G1 X98.139 Y101.361 E84.4483
G1 X98.139 Y100.944 E84.4827
G1 X86.910 Y112.174 E85.7971
G1 X86.910 Y111.257 E85.8729
G1 X98.139 Y100.028 E87.1872
G1 X98.139 Y99.112 E87.2631
G1 X86.910 Y110.341 E88.5774
G1 X86.910 Y109.425 E88.6532
G1 X98.139 Y98.195 E89.9675
G1 X98.139 Y97.279 E90.0434
G1 X86.910 Y108.508 E91.3577
G1 X86.910 Y107.592 E91.4336
G1 X98.139 Y96.362 E92.7479
G1 X98.139 Y95.446 E92.8237
G1 X86.910 Y106.675 E94.1380
G1 X86.910 Y105.759 E94.2139
G1 X98.139 Y94.530 E95.5282
G1 X98.139 Y93.613 E95.6040
G1 X86.910 Y104.843 E96.9184
G1 X86.910 Y103.926 E96.9942
G1 X98.139 Y92.697 E98.3085
G1 X98.139 Y91.780 E98.3844
G1 X86.910 Y103.010 E99.6987
G1 X86.910 Y102.093 E99.7745
G1 X98.139 Y90.864 E101.0889
G1 X98.139 Y89.947 E101.1647
G1 X86.910 Y101.177 E102.4790
G1 X86.910 Y100.260 E102.5549
G1 X98.139 Y89.031 E103.8692
G1 X98.139 Y88.115 E103.9450
G1 X86.910 Y99.344 E105.2594
G1 X86.910 Y98.428 E105.3352
G1 X98.139 Y87.198 E106.6495
G1 X98.139 Y86.282 E106.7254
G1 X86.910 Y97.511 E108.0397
G1 X86.910 Y96.595 E108.1155
G1 X98.139 Y85.365 E109.4299
G1 X98.139 Y84.449 E109.5057
G1 X86.910 Y95.678 E110.8200
G1 X86.910 Y94.762 E110.8959
G1 X98.139 Y83.533 E112.2102
G1 X98.139 Y82.616 E112.2860
G1 X86.910 Y93.846 E113.6003
G1 X86.910 Y92.929 E113.6762
G1 X98.139 Y81.700 E114.9905
G1 X98.139 Y80.783 E115.0664
G1 X86.910 Y92.013 E116.3807
G1 X86.910 Y91.096 E116.4565
G1 X98.139 Y79.867 E117.7708
G1 X98.139 Y78.951 E117.8467
G1 X86.910 Y90.180 E119.1610
G1 X86.910 Y89.264 E119.2368
G1 X104.813 Y71.361 E121.3322
G1 X103.896 Y71.361 E121.4081
G1 X86.910 Y88.347 E123.3962
G1 X86.910 Y87.431 E123.4721
G1 X102.980 Y71.361 E125.3529
G1 X102.063 Y71.361 E125.4288
G1 X86.910 Y86.514 E127.2024
G1 X86.910 Y85.598 E127.2782
G1 X101.147 Y71.361 E128.9446
G1 X100.231 Y71.361 E129.0204
G1 X86.910 Y84.681 E130.5795
G1 X86.910 Y83.765 E130.6554
G1 X99.314 Y71.361 E132.1072
G1 X98.398 Y71.361 E132.1830
G1 X86.910 Y82.849 E133.5276
G1 X86.910 Y81.932 E133.6035
G1 X97.481 Y71.361 E134.8408
G1 X96.565 Y71.361 E134.9166
G1 X86.910 Y81.016 E136.0467
G1 X86.910 Y80.099 E136.1225
G1 X95.648 Y71.361 E137.1453
