; G-Code generated by Simplify3D(R) Version 3.0.2
; déc. 26, 2015 at 6:21:41 PM
; Settings Summary
;   processName,Process1
;   applyToModels,rondelle,rondelle(2),rondelle(3),rondelle(4),rondelle(5),rondelle(6),rondelle(7),rondelle(8)
;   profileName,Verbatim Pla Dyzend 035 (modified)
;   profileVersion,2015-11-28 13:31:29
;   baseProfile,Prusa Mendel (modified)
;   printMaterial,PLA
;   printQuality,Medium
;   printExtruders,
;   extruderName,Primary Extruder
;   extruderToolheadNumber,0
;   extruderDiameter,0.35
;   extruderAutoWidth,1
;   extruderWidth,0.42
;   extrusionMultiplier,0.92
;   extruderUseRetract,1
;   extruderRetractionDistance,5.6
;   extruderExtraRestartDistance,-0.2
;   extruderRetractionZLift,0
;   extruderRetractionSpeed,3600
;   extruderUseCoasting,1
;   extruderCoastingDistance,0.2
;   extruderUseWipe,0
;   extruderWipeDistance,5
;   primaryExtruder,0
;   layerHeight,0.2
;   topSolidLayers,3
;   bottomSolidLayers,3
;   perimeterOutlines,2
;   printPerimetersInsideOut,1
;   startPointOption,2
;   startPointOriginX,0
;   startPointOriginY,0
;   startPointOriginZ,300
;   sequentialIslands,0
;   spiralVaseMode,0
;   firstLayerHeightPercentage,100
;   firstLayerWidthPercentage,85
;   firstLayerUnderspeed,0.8
;   useRaft,0
;   raftExtruder,0
;   raftLayers,2
;   raftOffset,3
;   raftSeparationDistance,0.2
;   raftInfill,60
;   disableRaftBaseLayers,0
;   useSkirt,1
;   skirtExtruder,0
;   skirtLayers,1
;   skirtOutlines,3
;   skirtOffset,4
;   usePrimePillar,0
;   primePillarExtruder,999
;   primePillarWidth,12
;   primePillarLocation,7
;   primePillarSpeedMultiplier,1
;   useOozeShield,0
;   oozeShieldExtruder,999
;   oozeShieldOffset,2
;   oozeShieldOutlines,1
;   oozeShieldSidewallShape,1
;   oozeShieldSidewallAngle,30
;   oozeShieldSpeedMultiplier,1
;   infillExtruder,0
;   internalInfillPattern,Rectilinear
;   externalInfillPattern,Rectilinear
;   infillPercentage,46
;   outlineOverlapPercentage,40
;   infillExtrusionWidthPercentage,100
;   minInfillLength,2
;   infillLayerInterval,1
;   infillAngles,45,-45
;   overlapInfillAngles,0
;   generateSupport,0
;   supportExtruder,0
;   supportInfillPercentage,15
;   supportExtraInflation,0
;   denseSupportLayers,1
;   denseSupportInfillPercentage,70
;   supportLayerInterval,1
;   supportHorizontalPartOffset,0.2
;   supportUpperSeparationLayers,1
;   supportLowerSeparationLayers,1
;   supportType,1
;   supportGridSpacing,4
;   maxOverhangAngle,45
;   supportAngles,0
;   temperatureName,Primary Extruder,Heated Bed
;   temperatureNumber,0,1
;   temperatureSetpointCount,2,1
;   temperatureSetpointLayers,1,4,1
;   temperatureSetpointTemperatures,220,215,40
;   temperatureStabilizeAtStartup,1,1
;   temperatureHeatedBed,0,1
;   temperatureRelayBetweenLayers,0,0
;   temperatureRelayBetweenLoops,0,0
;   fanLayers,1,4
;   fanSpeeds,0,70
;   blipFanToFullPower,1
;   adjustSpeedForCooling,1
;   minSpeedLayerTime,2
;   minCoolingSpeedSlowdown,40
;   increaseFanForCooling,1
;   minFanLayerTime,15
;   maxCoolingFanSpeed,100
;   increaseFanForBridging,1
;   bridgingFanSpeed,100
;   use5D,1
;   relativeEdistances,0
;   allowEaxisZeroing,1
;   independentExtruderAxes,0
;   includeM10123,0
;   stickySupport,1
;   applyToolheadOffsets,0
;   gcodeXoffset,0
;   gcodeYoffset,0
;   gcodeZoffset,0
;   overrideMachineDefinition,1
;   machineTypeOverride,0
;   strokeXoverride,200
;   strokeYoverride,200
;   strokeZoverride,180
;   originOffsetXoverride,0
;   originOffsetYoverride,0
;   originOffsetZoverride,0
;   homeXdirOverride,-1
;   homeYdirOverride,-1
;   homeZdirOverride,-1
;   flipXoverride,1
;   flipYoverride,-1
;   flipZoverride,1
;   toolheadOffsets,0,0|0,0|0,0|0,0|0,0|0,0
;   overrideFirmwareConfiguration,0
;   firmwareTypeOverride,RepRap (Marlin/Repetier/Sprinter)
;   GPXconfigOverride,r2
;   baudRateOverride,115200
;   overridePrinterModels,1
;   printerModelsOverride
;   startingGcode,M107       ;start with the fan off,G28 X0 Y0  ;move X/Y to min endstops,G28 Z0     ;move Z to min endstops,G92 E0                  ;zero the extruded length,G1 F{travel_speed},G1 Z0.08 ;move to 0.08,G92 Z0 ;set current height,M92 Z394.8,M500,,
;   layerChangeGcode,
;   retractionGcode,
;   toolChangeGcode,
;   endingGcode,; -- END GCODE --,M104 S0                     ;extruder heater off,M140 S0                     ;heated bed heater off (if you have it),G90,G1 E-5 F300                            ;retract the filament a bit before lifting the nozzle to release some of the pressure,G91                                    ;relative positioning,G1 Z10 F{travel_speed} ;move Z up a bit and retract filament even more,G90,G28 X0 Y0                              ;move X/Y to min endstops so the head is out of the way,;M300,M107       ;start with the fan off,M84 ; disable motors
;   createX3G,0
;   celebration,0
;   celebrationSong,Random Song
;   createMB5G,0
;   postProcessing,{REPLACE "M117 Layer" "M117 Layer"} ,{REPLACE " Z=" " Z="}
;   defaultSpeed,4200
;   outlineUnderspeed,0.8
;   solidInfillUnderspeed,0.8
;   supportUnderspeed,0.8
;   rapidXYspeed,5400
;   rapidZspeed,1200
;   minBridgingArea,50
;   bridgingExtraInflation,0
;   bridgingExtrusionMultiplier,1.05
;   bridgingSpeedMultiplier,1
;   filamentDiameter,1.75
;   filamentPricePerKg,46
;   filamentDensity,1.25
;   useMinPrintHeight,0
;   minPrintHeight,0
;   useMaxPrintHeight,0
;   maxPrintHeight,32
;   useDiaphragm,1
;   diaphragmLayerInterval,23
;   robustSlicing,1
;   mergeAllIntoSolid,0
;   onlyRetractWhenCrossingOutline,1
;   retractBetweenLayers,0
;   useRetractionMinTravel,0
;   retractionMinTravel,3
;   retractWhileWiping,1
;   onlyWipeOutlines,1
;   avoidCrossingOutline,0
;   maxMovementDetourFactor,3
;   toolChangeRetractionDistance,12
;   toolChangeExtraRestartDistance,-0.5
;   toolChangeRetractionSpeed,600
;   allowThinWallGapFill,1
;   thinWallAllowedOverlapPercentage,30
;   horizontalSizeCompensation,0
G90
M82
M106 S0
M140 S40
M190 S40
M104 S220 T0
M109 S220 T0
M107       ;start with the fan off
G28 X0 Y0  ;move X/Y to min endstops
G28 Z0     ;move Z to min endstops
G92 E0                  ;zero the extruded length
G1 F{travel_speed}
G1 Z0.08 ;move to 0.08
G92 Z0 ;set current height
M92 Z394.8
M500
G92 E0
G1 E-5.6000 F3600
G1 Z0.200 F1200
M117 Layer 1, Z=0.2
T0
; tool H0.200 W0.357
; skirt
G1 X85.858 Y69.293 F5400
G1 E-0.2000 F1080
G92 E0
G1 X85.872 Y69.275 E0.0006 F3360
G1 X86.001 Y69.121 E0.0061
G1 X86.016 Y69.104 E0.0067
G1 X86.435 Y68.647 E0.0236
G1 X86.451 Y68.631 E0.0243
G1 X86.592 Y68.490 E0.0297
G1 X86.609 Y68.474 E0.0304
G1 X87.174 Y67.957 E0.0513
G1 X87.194 Y67.939 E0.0520
G1 X87.370 Y67.794 E0.0582
G1 X87.390 Y67.778 E0.0589
G1 X88.005 Y67.321 E0.0799
G1 X88.024 Y67.307 E0.0805
G1 X88.188 Y67.195 E0.0859
G1 X88.208 Y67.183 E0.0866
G1 X88.730 Y66.861 E0.1033
G1 X88.750 Y66.849 E0.1040
G1 X88.924 Y66.753 E0.1094
G1 X88.944 Y66.742 E0.1100
G1 X89.617 Y66.405 E0.1305
G1 X89.638 Y66.395 E0.1312
G1 X89.819 Y66.314 E0.1366
G1 X89.841 Y66.305 E0.1373
G1 X90.398 Y66.085 E0.1536
G1 X90.417 Y66.078 E0.1542
G1 X90.578 Y66.022 E0.1588
G1 X90.596 Y66.015 E0.1594
G1 X91.169 Y65.838 E0.1757
G1 X91.191 Y65.831 E0.1764
G1 X91.384 Y65.781 E0.1818
G1 X91.406 Y65.775 E0.1824
G1 X92.155 Y65.614 E0.2033
G1 X92.181 Y65.609 E0.2041
G1 X92.405 Y65.572 E0.2103
G1 X92.431 Y65.568 E0.2110
G1 X93.192 Y65.483 E0.2319
G1 X93.215 Y65.480 E0.2325
G1 X93.414 Y65.467 E0.2380
G1 X93.437 Y65.466 E0.2386
G1 X94.036 Y65.451 E0.2550
G1 X94.056 Y65.451 E0.2555
G1 X94.227 Y65.453 E0.2602
G1 X94.247 Y65.454 E0.2607
G1 X94.831 Y65.484 E0.2767
G1 X94.851 Y65.485 E0.2772
G1 X95.021 Y65.500 E0.2819
G1 X95.040 Y65.503 E0.2824
G1 X95.635 Y65.578 E0.2988
G1 X95.658 Y65.582 E0.2994
G1 X95.854 Y65.615 E0.3049
G1 X95.876 Y65.620 E0.3055
G1 X96.611 Y65.780 E0.3260
G1 X96.633 Y65.785 E0.3267
G1 X96.826 Y65.836 E0.3321
G1 X96.848 Y65.842 E0.3327
G1 X97.434 Y66.025 E0.3495
G1 X97.456 Y66.033 E0.3501
G1 X97.643 Y66.100 E0.3556
G1 X97.665 Y66.109 E0.3562
G1 X98.360 Y66.395 E0.3767
G1 X98.381 Y66.404 E0.3774
G1 X98.562 Y66.488 E0.3828
G1 X98.582 Y66.498 E0.3834
G1 X99.114 Y66.774 E0.3998
G1 X99.132 Y66.783 E0.4003
G1 X99.280 Y66.867 E0.4050
G1 X99.297 Y66.877 E0.4055
G1 X99.806 Y67.192 E0.4219
G1 X99.825 Y67.204 E0.4225
G1 X99.988 Y67.315 E0.4279
G1 X100.006 Y67.328 E0.4285
G1 X101.028 Y68.090 E0.4633
G1 X101.174 Y67.957 E0.4687
G1 X101.194 Y67.939 E0.4694
G1 X101.370 Y67.794 E0.4756
G1 X101.390 Y67.778 E0.4764
G1 X102.005 Y67.321 E0.4973
G1 X102.024 Y67.307 E0.4979
G1 X102.188 Y67.195 E0.5033
G1 X102.208 Y67.183 E0.5040
G1 X102.730 Y66.861 E0.5207
G1 X102.750 Y66.849 E0.5214
G1 X102.924 Y66.753 E0.5268
G1 X102.944 Y66.742 E0.5274
G1 X103.617 Y66.405 E0.5480
G1 X103.638 Y66.395 E0.5486
G1 X103.819 Y66.314 E0.5540
G1 X103.841 Y66.305 E0.5547
G1 X104.398 Y66.085 E0.5710
G1 X104.417 Y66.078 E0.5716
G1 X104.578 Y66.022 E0.5762
G1 X104.596 Y66.015 E0.5768
G1 X105.169 Y65.838 E0.5931
G1 X105.191 Y65.831 E0.5938
G1 X105.384 Y65.781 E0.5992
G1 X105.406 Y65.775 E0.5998
G1 X106.155 Y65.614 E0.6208
G1 X106.181 Y65.609 E0.6215
G1 X106.405 Y65.572 E0.6277
G1 X106.431 Y65.568 E0.6284
G1 X107.192 Y65.483 E0.6493
G1 X107.215 Y65.480 E0.6500
G1 X107.414 Y65.467 E0.6554
G1 X107.437 Y65.466 E0.6560
G1 X108.036 Y65.451 E0.6724
G1 X108.056 Y65.451 E0.6729
G1 X108.227 Y65.453 E0.6776
G1 X108.247 Y65.454 E0.6781
G1 X108.831 Y65.484 E0.6941
G1 X108.851 Y65.485 E0.6947
G1 X109.021 Y65.500 E0.6993
G1 X109.040 Y65.503 E0.6999
G1 X109.635 Y65.578 E0.7162
G1 X109.658 Y65.582 E0.7169
G1 X109.854 Y65.615 E0.7223
G1 X109.876 Y65.620 E0.7229
G1 X110.611 Y65.780 E0.7435
G1 X110.633 Y65.785 E0.7441
G1 X110.826 Y65.836 E0.7495
G1 X110.848 Y65.842 E0.7502
G1 X111.434 Y66.025 E0.7669
G1 X111.456 Y66.033 E0.7675
G1 X111.643 Y66.100 E0.7730
G1 X111.665 Y66.109 E0.7736
G1 X112.360 Y66.395 E0.7941
G1 X112.381 Y66.404 E0.7948
G1 X112.562 Y66.488 E0.8002
G1 X112.582 Y66.498 E0.8008
G1 X113.114 Y66.774 E0.8172
G1 X113.132 Y66.783 E0.8177
G1 X113.280 Y66.867 E0.8224
G1 X113.297 Y66.877 E0.8229
G1 X113.806 Y67.192 E0.8393
G1 X113.825 Y67.204 E0.8399
G1 X113.988 Y67.315 E0.8453
G1 X114.006 Y67.328 E0.8459
G1 X115.376 Y68.350 E0.8926
G1 X115.534 Y68.538 E0.8993
G1 X116.493 Y70.450 E0.9577
G1 X116.550 Y70.689 E0.9644
G1 X116.550 Y81.315 E1.2546
G1 X116.493 Y81.553 E1.2613
G1 X115.532 Y83.467 E1.3198
G1 X115.374 Y83.655 E1.3265
G1 X114.910 Y84.001 E1.3423
G1 X115.376 Y84.349 E1.3582
G1 X115.534 Y84.537 E1.3649
G1 X116.493 Y86.449 E1.4233
G1 X116.550 Y86.688 E1.4300
G1 X116.550 Y97.314 E1.7202
G1 X116.493 Y97.553 E1.7269
G1 X115.532 Y99.467 E1.7854
G1 X115.374 Y99.655 E1.7921
G1 X114.922 Y99.991 E1.8075
G1 X115.313 Y100.268 E1.8206
G1 X115.478 Y100.458 E1.8275
G1 X116.490 Y102.412 E1.8876
G1 X116.550 Y102.657 E1.8945
G1 X116.550 Y113.312 E2.1855
G1 X116.493 Y113.551 E2.1922
G1 X115.533 Y115.464 E2.2506
G1 X115.376 Y115.652 E2.2573
G1 X114.910 Y115.999 E2.2732
G1 X115.376 Y116.347 E2.2891
G1 X115.534 Y116.535 E2.2958
G1 X116.493 Y118.448 E2.3542
G1 X116.550 Y118.686 E2.3609
G1 X116.550 Y129.312 E2.6511
G1 X116.493 Y129.551 E2.6578
G1 X115.532 Y131.465 E2.7163
G1 X115.374 Y131.653 E2.7230
G1 X113.983 Y132.688 E2.7704
G1 X113.962 Y132.704 E2.7711
G1 X113.773 Y132.830 E2.7773
G1 X113.751 Y132.844 E2.7780
G1 X113.081 Y133.245 E2.7993
G1 X113.058 Y133.258 E2.8000
G1 X112.858 Y133.364 E2.8062
G1 X112.834 Y133.376 E2.8070
G1 X112.128 Y133.708 E2.8283
G1 X112.104 Y133.718 E2.8290
G1 X111.893 Y133.805 E2.8352
G1 X111.869 Y133.814 E2.8359
G1 X111.133 Y134.073 E2.8572
G1 X111.108 Y134.081 E2.8579
G1 X110.889 Y134.146 E2.8642
G1 X110.864 Y134.153 E2.8649
G1 X110.106 Y134.337 E2.8862
G1 X110.080 Y134.342 E2.8869
G1 X109.856 Y134.385 E2.8931
G1 X109.830 Y134.389 E2.8938
G1 X109.072 Y134.494 E2.9148
G1 X109.049 Y134.496 E2.9154
G1 X108.851 Y134.515 E2.9208
G1 X108.828 Y134.517 E2.9215
G1 X108.215 Y134.547 E2.9382
G1 X108.192 Y134.548 E2.9388
G1 X107.992 Y134.549 E2.9443
G1 X107.969 Y134.548 E2.9449
G1 X107.204 Y134.519 E2.9658
G1 X107.178 Y134.517 E2.9666
G1 X106.951 Y134.497 E2.9728
G1 X106.925 Y134.494 E2.9735
G1 X106.152 Y134.386 E2.9948
G1 X106.126 Y134.382 E2.9955
G1 X105.903 Y134.339 E3.0017
G1 X105.877 Y134.333 E3.0024
G1 X105.119 Y134.148 E3.0238
G1 X105.094 Y134.141 E3.0245
G1 X104.875 Y134.076 E3.0307
G1 X104.850 Y134.068 E3.0314
G1 X104.115 Y133.808 E3.0527
G1 X104.090 Y133.798 E3.0534
G1 X103.880 Y133.712 E3.0597
G1 X103.856 Y133.701 E3.0604
G1 X103.150 Y133.368 E3.0817
G1 X103.127 Y133.356 E3.0824
G1 X102.926 Y133.249 E3.0886
G1 X102.903 Y133.236 E3.0893
G1 X102.235 Y132.834 E3.1106
G1 X102.212 Y132.820 E3.1113
G1 X102.023 Y132.693 E3.1176
G1 X102.002 Y132.678 E3.1183
G1 X101.377 Y132.211 E3.1396
G1 X101.357 Y132.195 E3.1403
G1 X101.182 Y132.051 E3.1465
G1 X101.162 Y132.033 E3.1472
G1 X101.028 Y131.910 E3.1522
G1 X99.983 Y132.688 E3.1877
G1 X99.962 Y132.704 E3.1885
G1 X99.773 Y132.830 E3.1947
G1 X99.751 Y132.844 E3.1954
G1 X99.081 Y133.245 E3.2167
G1 X99.058 Y133.258 E3.2174
G1 X98.858 Y133.364 E3.2236
G1 X98.834 Y133.376 E3.2243
G1 X98.128 Y133.708 E3.2456
G1 X98.104 Y133.718 E3.2464
G1 X97.893 Y133.805 E3.2526
G1 X97.869 Y133.814 E3.2533
G1 X97.133 Y134.073 E3.2746
G1 X97.108 Y134.081 E3.2753
G1 X96.889 Y134.146 E3.2815
G1 X96.864 Y134.153 E3.2823
G1 X96.106 Y134.337 E3.3036
G1 X96.080 Y134.342 E3.3043
G1 X95.856 Y134.385 E3.3105
G1 X95.830 Y134.389 E3.3112
G1 X95.072 Y134.494 E3.3321
G1 X95.049 Y134.496 E3.3328
G1 X94.851 Y134.515 E3.3382
G1 X94.828 Y134.517 E3.3388
G1 X94.215 Y134.547 E3.3556
G1 X94.192 Y134.548 E3.3562
G1 X93.992 Y134.549 E3.3617
G1 X93.969 Y134.548 E3.3623
G1 X93.204 Y134.519 E3.3832
G1 X93.178 Y134.517 E3.3839
G1 X92.951 Y134.497 E3.3901
G1 X92.925 Y134.494 E3.3909
G1 X92.152 Y134.386 E3.4122
G1 X92.126 Y134.382 E3.4129
G1 X91.903 Y134.339 E3.4191
G1 X91.877 Y134.333 E3.4198
G1 X91.119 Y134.148 E3.4411
G1 X91.094 Y134.141 E3.4419
G1 X90.875 Y134.076 E3.4481
G1 X90.850 Y134.068 E3.4488
G1 X90.115 Y133.808 E3.4701
G1 X90.090 Y133.798 E3.4708
G1 X89.880 Y133.712 E3.4770
G1 X89.856 Y133.701 E3.4778
G1 X89.150 Y133.368 E3.4991
G1 X89.127 Y133.356 E3.4998
G1 X88.926 Y133.249 E3.5060
G1 X88.903 Y133.236 E3.5067
G1 X88.235 Y132.834 E3.5280
G1 X88.212 Y132.820 E3.5287
G1 X88.023 Y132.693 E3.5349
G1 X88.002 Y132.678 E3.5357
G1 X87.377 Y132.211 E3.5570
G1 X87.357 Y132.195 E3.5577
G1 X87.182 Y132.051 E3.5639
G1 X87.162 Y132.033 E3.5646
G1 X86.591 Y131.510 E3.5857
G1 X86.572 Y131.492 E3.5865
G1 X86.413 Y131.330 E3.5926
G1 X86.395 Y131.311 E3.5934
G1 X85.876 Y130.729 E3.6147
G1 X85.859 Y130.709 E3.6154
G1 X85.716 Y130.532 E3.6216
G1 X85.700 Y130.511 E3.6223
G1 X85.241 Y129.880 E3.6436
G1 X85.226 Y129.859 E3.6443
G1 X85.102 Y129.668 E3.6505
G1 X85.088 Y129.646 E3.6513
G1 X84.695 Y128.971 E3.6726
G1 X84.682 Y128.948 E3.6733
G1 X84.578 Y128.746 E3.6795
G1 X84.566 Y128.722 E3.6802
G1 X84.243 Y128.012 E3.7015
G1 X84.233 Y127.988 E3.7023
G1 X84.149 Y127.777 E3.7085
G1 X84.140 Y127.752 E3.7092
G1 X83.890 Y127.013 E3.7305
G1 X83.882 Y126.988 E3.7312
G1 X83.820 Y126.769 E3.7374
G1 X83.813 Y126.743 E3.7382
G1 X83.641 Y125.997 E3.7591
G1 X83.637 Y125.974 E3.7597
G1 X83.600 Y125.778 E3.7651
G1 X83.597 Y125.756 E3.7658
G1 X83.512 Y125.148 E3.7825
G1 X83.510 Y125.125 E3.7832
G1 X83.491 Y124.927 E3.7886
G1 X83.489 Y124.904 E3.7892
G1 X83.451 Y124.139 E3.8101
G1 X83.450 Y124.112 E3.8109
G1 X83.450 Y123.885 E3.8171
G1 X83.451 Y123.859 E3.8178
G1 X83.490 Y123.079 E3.8391
G1 X83.492 Y123.053 E3.8398
G1 X83.515 Y122.827 E3.8460
G1 X83.518 Y122.801 E3.8468
G1 X83.635 Y122.029 E3.8681
G1 X83.640 Y122.003 E3.8688
G1 X83.685 Y121.780 E3.8750
G1 X83.691 Y121.755 E3.8757
G1 X83.885 Y120.999 E3.8970
G1 X83.892 Y120.974 E3.8977
G1 X83.960 Y120.756 E3.9040
G1 X83.968 Y120.731 E3.9047
G1 X84.237 Y119.999 E3.9260
G1 X84.247 Y119.974 E3.9267
G1 X84.336 Y119.765 E3.9329
G1 X84.347 Y119.741 E3.9336
G1 X84.688 Y119.039 E3.9550
G1 X84.700 Y119.016 E3.9557
G1 X84.810 Y118.817 E3.9619
G1 X84.823 Y118.794 E3.9626
G1 X85.233 Y118.130 E3.9839
G1 X85.247 Y118.108 E3.9846
G1 X85.376 Y117.920 E3.9908
